svg/uf0113-engram.svg

<svg height="960" style="" width="1270" xmlns="http://www.w3.org/2000/svg"><path d="m648.78274 102.64152h-26.16351l-281.76103-40.25159 104.65411-62.38993h382.38993l104.65408 62.38993zm-529.00289 338.36194 183.14465 237.48426 112.7044 275.72329-106.66667-64.40251-189.18238-334.08805zm533.33347-301.8868 14.08805-16.10061 289.81118-40.25159 189.18245 328.05032-191.19501 243.5219-301.88667-173.08152zm313.96213 543.39623 183.14475-239.49684v116.72954l-189.18248 332.07546-108.67934 66.41511zm-344.15095-199.24528-301.88678 173.08177-191.19496-243.52191 191.19496-328.05043 287.79873 40.25157 14.08805 16.10063zm9.75763 25.91476 299.87419 169.05663-110.69181 281.761h-380.37737l-108.67934-281.761z" style="stroke-width:2.78837"/></svg>

<svg xmlns="http://www.w3.org/2000/svg" width="1270" height="960">
    <path d="M648.783 102.642h-26.164L340.86 62.39 445.511 0h382.39l104.654 62.39zM119.78 441.003l183.145 237.485L415.629 954.21l-106.667-64.402L119.78 555.72zm533.333-301.886 14.088-16.1 289.812-40.253 189.182 328.05L955 654.338 653.113 481.255zm313.962 543.396 183.145-239.497v116.73L961.038 891.82l-108.68 66.415zm-344.15-199.245L321.038 656.349 129.843 412.827l191.195-328.05 287.798 40.252 14.089 16.1zm9.757 25.914L932.556 678.24 821.865 960H441.487l-108.68-281.761z" style="stroke-width:2.78837"/>
</svg>
